packages/katcn/src/icons/svg/userBan-solid.svg

<svg width="24" height="25" viewBox="0 0 24 25" fill="none" xmlns="http://www.w3.org/2000/svg">
<path d="M11.5 7.47607C11.1 7.47607 10.8 7.77607 10.7 8.17607C10.6 8.57607 10.7 8.97607 10.9 9.17607L14.6 12.8761C14.8 13.0761 15 13.1761 15.3 13.1761C15.4 13.1761 15.5 13.1761 15.6 13.0761C16 12.9761 16.2 12.6761 16.3 12.2761C16.3 12.0761 16.3 11.8761 16.3 11.7761C16.3 9.37607 14.4 7.47607 12 7.47607C11.8 7.47607 11.6 7.47607 11.5 7.47607Z" fill="black"/>
<path d="M8.49999 5.7761C9.59999 5.2761 10.8 4.9761 12 4.9761C16.4 4.9761 20 8.5761 20 12.9761C20 14.1761 19.7 15.3761 19.2 16.4761C19 16.9761 19.2 17.5761 19.7 17.7761C19.8 17.8761 20 17.8761 20.1 17.8761C20.5 17.8761 20.8 17.6761 21 17.2761C21.7 15.8761 22 14.3761 22 12.8761C22 7.3761 17.5 2.8761 12 2.8761C10.5 2.9761 8.99999 3.2761 7.59999 3.9761C7.09999 4.2761 6.89999 4.8761 7.09999 5.3761C7.39999 5.8761 7.99999 6.0761 8.49999 5.7761Z" fill="black"/>
<path d="M19 18.5761L15.4 14.9761L14.4 13.9761L9.8 9.37607L3.7 3.27607C3.3 2.87607 2.7 2.87607 2.3 3.27607C1.9 3.67607 1.9 4.27607 2.3 4.67607L4.3 6.67607C2.8 8.47607 2 10.6761 2 12.9761C2 15.6761 3.1 18.1761 4.9 19.9761C4.9 19.9761 4.9 19.9761 5 20.0761L5.1 20.1761C6.9 21.8761 9.3 22.9761 12 22.9761C14.3 22.9761 16.5 22.1761 18.3 20.6761L20.3 22.6761C20.5 22.8761 20.8 22.9761 21 22.9761C21.2 22.9761 21.5 22.8761 21.7 22.6761C22.1 22.2761 22.1 21.6761 21.7 21.2761L19 18.5761ZM5.7 8.07607L8 10.3761C7.8 10.8761 7.7 11.3761 7.7 11.8761C7.7 13.0761 8.2 14.0761 8.9 14.8761C7.5 15.4761 6.4 16.4761 5.5 17.6761C4.6 16.2761 4 14.6761 4 12.9761C4 11.1761 4.6 9.47607 5.7 8.07607Z" fill="black"/>
</svg>

<svg xmlns="http://www.w3.org/2000/svg" fill="none" viewBox="0 0 24 25"><path fill="#000" d="M11.5 7.476c-.4 0-.7.3-.8.7s0 .8.2 1l3.7 3.7c.2.2.4.3.7.3.1 0 .2 0 .3-.1.4-.1.6-.4.7-.8v-.5c0-2.4-1.9-4.3-4.3-4.3z"/><path fill="#000" d="M8.5 5.776c1.1-.5 2.3-.8 3.5-.8 4.4 0 8 3.6 8 8 0 1.2-.3 2.4-.8 3.5-.2.5 0 1.1.5 1.3.1.1.3.1.4.1q.6 0 .9-.6c.7-1.4 1-2.9 1-4.4 0-5.5-4.5-10-10-10-1.5.1-3 .4-4.4 1.1-.5.3-.7.9-.5 1.4.3.5.9.7 1.4.4m10.5 12.8-3.6-3.6-1-1-4.6-4.6-6.1-6.1c-.4-.4-1-.4-1.4 0s-.4 1 0 1.4l2 2c-1.5 1.8-2.3 4-2.3 6.3 0 2.7 1.1 5.2 2.9 7l.1.1.1.1c1.8 1.7 4.2 2.8 6.9 2.8 2.3 0 4.5-.8 6.3-2.3l2 2c.2.2.5.3.7.3s.5-.1.7-.3c.4-.4.4-1 0-1.4zM5.7 8.076l2.3 2.3q-.3.75-.3 1.5c0 1.2.5 2.2 1.2 3-1.4.6-2.5 1.6-3.4 2.8-.9-1.4-1.5-3-1.5-4.7 0-1.8.6-3.5 1.7-4.9"/></svg>
